X: 36451
T: Second Star, The
R: hornpipe
M: 4/4
K: Gmajor
|:B,>C|D>GB>A G>FE>D|C>EA>B c>BA>G|F>Af>e (3ded c>d|B>cA>B G>AF>G|
D>GB>A G>FE>D|C>EA>B c>BA>G|F>dc>A F>DC>A,|1 G,2 G2 G2:|2 G,2 G2 G2||
|:(3def|g2 B,>D G>Bd>g|e2 C>E G>ce>g|d2 A,>C F>Ac>d|B2 G,>B, D>GB>d|
g2 B,>D G>Bd>g|e2 C>E G>ce>g|f>ed>^c =c>B A>F|1 G2g2G2:|2 G2g2G2||
|:B,>C|(3DCB, D>G B>G D>G|(3EDC E>G c>G E>G|F>D F>A c>A F>A|(3GBA (3GFE D2 B,>C|
(3DCB, D>G B>G D>G|(3EDC E>G c>G E>G|(3FAd f>e d>^c =c>A|1 (3GBd (3gdB G2:|2 (3GBd (3gdB G2||
|:(3def|g2 (3G,A,G, (3B,DG (3Bdg|e2 (3CB,C (3G,CE (3Gce|d2 (3A,G,A, (3CEG (3FAd|B2 (3GFG (3B,DG (3Bdf|
g2 (3G,A,G, (3B,DG (3Bdg|e2 (3CB,C (3G,CE (3Gce|f>e d>^c =c>A F>A|1 (3GBd (3gdB G2:|2 (3GBd (3gdB G2||

